.icons/Gruvbox-Plus-Dark/apps/16/pwned-checker.svg

<svg width="16" height="16" version="1.1" xmlns="http://www.w3.org/2000/svg">
  <defs>
    <style type="text/css" id="current-color-scheme">.ColorScheme-Text { color:#ebdbb2; } .ColorScheme-Highlight { color:#458588; }</style>
  </defs>
  <path class="ColorScheme-Text" fill="currentColor" d="m0 2.286v3.809h1.143v-3.809h-1.143zm4.19 3.428c-0.631 0-1.142 0.512-1.142 1.143s0.511 1.143 1.142 1.143c0.632 0 1.143-0.512 1.143-1.143s-0.511-1.143-1.143-1.143zm3.048 2.667v1.143h3.81v-1.143h-3.81zm4.952 0v1.143h3.81v-1.143h-3.81zm-8.009 1.519c-0.301 0-0.589 0.119-0.802 0.332-0.212 0.212-0.332 0.501-0.331 0.801 0 0.485 0.309 0.916 0.767 1.072l-0.374 1.609h0.837c0.537-0.862 1.174-1.619 1.037-2.681 0-0.3-0.12-0.589-0.332-0.801-0.213-0.213-0.501-0.333-0.802-0.332z"/>
</svg>

<svg xmlns="http://www.w3.org/2000/svg" style="isolation:isolate" width="16" height="16" viewBox="0 0 16 16">
 <defs>
  <style id="current-color-scheme" type="text/css">
   .ColorScheme-Text { color:#ebdbb2; } .ColorScheme-Highlight { color:#458588; }
  </style>
  <linearGradient id="arrongin" x1="0%" x2="0%" y1="0%" y2="100%">
   <stop offset="0%" style="stop-color:#d79921; stop-opacity:1"/>
   <stop offset="100%" style="stop-color:#b57614; stop-opacity:1"/>
  </linearGradient>
  <linearGradient id="aurora" x1="0%" x2="0%" y1="0%" y2="100%">
   <stop offset="0%" style="stop-color:#83a598; stop-opacity:1"/>
   <stop offset="100%" style="stop-color:#b16286; stop-opacity:1"/>
  </linearGradient>
  <linearGradient id="fitdance" x1="0%" x2="0%" y1="0%" y2="100%">
   <stop offset="0%" style="stop-color:#8ec07c; stop-opacity:1"/>
   <stop offset="100%" style="stop-color:#458588; stop-opacity:1"/>
  </linearGradient>
  <linearGradient id="oomox" x1="0%" x2="0%" y1="0%" y2="100%">
   <stop offset="0%" style="stop-color:#458588; stop-opacity:1"/>
   <stop offset="100%" style="stop-color:#928374; stop-opacity:1"/>
  </linearGradient>
  <linearGradient id="rainblue" x1="0%" x2="0%" y1="0%" y2="100%">
   <stop offset="0%" style="stop-color:#b8bb26; stop-opacity:1"/>
   <stop offset="100%" style="stop-color:#076678; stop-opacity:1"/>
  </linearGradient>
  <linearGradient id="sunrise" x1="0%" x2="0%" y1="0%" y2="100%">
   <stop offset="0%" style="stop-color: #fe8019; stop-opacity:1"/>
   <stop offset="100%" style="stop-color: #fabd2f; stop-opacity:1"/>
  </linearGradient>
  <linearGradient id="telinkrin" x1="0%" x2="0%" y1="0%" y2="100%">
   <stop offset="0%" style="stop-color: #83a598; stop-opacity:1"/>
   <stop offset="100%" style="stop-color: #83a598; stop-opacity:1"/>
  </linearGradient>
  <linearGradient id="60spsycho" x1="0%" x2="0%" y1="0%" y2="100%">
   <stop offset="0%" style="stop-color: #fb4934; stop-opacity:1"/>
   <stop offset="25%" style="stop-color: #fabd2f; stop-opacity:1"/>
   <stop offset="50%" style="stop-color: #fe8019; stop-opacity:1"/>
   <stop offset="100%" style="stop-color: #689d6a; stop-opacity:1"/>
  </linearGradient>
  <linearGradient id="90ssummer" x1="0%" x2="0%" y1="0%" y2="100%">
   <stop offset="0%" style="stop-color: #b16286; stop-opacity:1"/>
   <stop offset="20%" style="stop-color: #8ec07c; stop-opacity:1"/>
   <stop offset="50%" style="stop-color: #fabd2f; stop-opacity:1"/>
   <stop offset="100%" style="stop-color: #458588; stop-opacity:1"/>
  </linearGradient>
  <linearGradient id="cyberneon" x1="0%" x2="0%" y1="0%" y2="100%">
    <stop offset="0" style="stop-color:#83a598; stop-opacity:1"/>
    <stop offset="1" style="stop-color:#b16286; stop-opacity:1"/>
  </linearGradient>
 </defs>
 <path style="fill:currentColor" class="ColorScheme-Text" d="M 0 2.286 L 0 6.095 L 1.143 6.095 L 1.143 2.286 L 0 2.286 Z M 4.19 5.714 C 3.559 5.714 3.048 6.226 3.048 6.857 C 3.048 7.488 3.559 8 4.19 8 C 4.822 8 5.333 7.488 5.333 6.857 C 5.333 6.226 4.822 5.714 4.19 5.714 Z M 7.238 8.381 L 7.238 9.524 L 11.048 9.524 L 11.048 8.381 L 7.238 8.381 Z M 12.19 8.381 L 12.19 9.524 L 16 9.524 L 16 8.381 L 12.19 8.381 Z M 4.181 9.9 C 3.88 9.9 3.592 10.019 3.379 10.232 C 3.167 10.444 3.047 10.733 3.048 11.033 C 3.048 11.518 3.357 11.949 3.815 12.105 L 3.441 13.714 L 4.278 13.714 C 4.815 12.852 5.452 12.095 5.315 11.033 C 5.315 10.733 5.195 10.444 4.983 10.232 C 4.77 10.019 4.482 9.899 4.181 9.9 L 4.181 9.9 Z"/>
</svg>
